svg/Frame-1261156452.svg

<svg width="49" height="74" viewBox="0 0 49 74" fill="none" xmlns="http://www.w3.org/2000/svg"><rect width="49" height="74" fill="#DADADA"/><mask id="path-2-inside-1_2483_15959" fill="white"><path d="M1043.2 91.2002L-396.801 91.2001L-396.801 -17.7999L1043.2 -17.7998L1043.2 91.2002Z"/></mask><path d="M1043.2 91.2002L-396.801 91.2001L-396.801 -17.7999L1043.2 -17.7998L1043.2 91.2002Z" fill="white"/><path d="M4.84322 64.2202V65.0722C4.38722 65.3002 3.93122 65.5162 3.46322 65.7082V69.2842C3.46322 70.0042 3.11522 70.3642 2.41922 70.3642H1.30322L1.11122 69.5362C1.45922 69.5722 1.79522 69.5962 2.11922 69.5962C2.44322 69.5962 2.61122 69.4162 2.61122 69.0802V66.0562C2.05922 66.2602 1.48322 66.4522 0.907219 66.6322L0.691219 65.7802C1.35122 65.6242 1.98722 65.4322 2.61122 65.2162V62.4322H0.871219V61.6042H2.61122V59.4322H3.46322V61.6042H4.80722V62.4322H3.46322V64.8802C3.93122 64.6762 4.38722 64.4602 4.84322 64.2202ZM6.31922 64.9762V70.4002H5.50322V59.8882H10.7712C10.7712 61.2202 10.6992 62.1082 10.5672 62.5522C10.4232 62.9842 9.96722 63.2122 9.19922 63.2122H8.33522L8.09522 62.4562C8.28722 62.4562 8.51522 62.4682 8.80322 62.4682C9.09122 62.4682 9.31922 62.4442 9.46322 62.4202C9.59522 62.3722 9.70322 62.2882 9.78722 62.1442C9.87122 61.9162 9.91922 61.4242 9.94322 60.6802H6.31922V64.1842H10.8792V64.9282C10.6392 66.2002 10.2192 67.2922 9.59522 68.1922C10.1712 68.7442 10.8792 69.2482 11.7192 69.7162L11.1432 70.3762C10.3512 69.8722 9.66722 69.3562 9.11522 68.8042C8.53922 69.4642 7.83122 70.0042 7.01522 70.4122L6.59522 69.6562C7.36322 69.2722 8.01122 68.7802 8.53922 68.1802C7.71122 67.1962 7.20722 66.1282 7.01522 64.9762H6.31922ZM7.79522 64.9762C7.96322 65.9122 8.35922 66.7762 9.00722 67.5562C9.48722 66.8242 9.83522 65.9602 10.0512 64.9762H7.79522ZM22.1472 65.9722V70.3882H21.2712V69.7522H15.1992V70.3882H14.3232V65.9722H22.1472ZM15.1992 68.9362H21.2712V66.8002H15.1992V68.9362ZM15.0432 61.9162C14.6352 62.4682 14.1552 62.9842 13.5912 63.4522L13.0752 62.7682C14.1552 61.9042 14.8992 60.8362 15.2832 59.5762L16.1472 59.6722C15.9912 60.1762 15.7992 60.6442 15.5592 61.0882H17.9112V59.3842H18.7872V61.0882H22.7112V61.9162H18.7872V63.8602H23.6232V64.7122H12.7752V63.8602H17.9112V61.9162H15.0432ZM29.5512 60.1162V67.4242C29.8272 67.3402 30.0912 67.2562 30.3552 67.1722V67.9882C28.7952 68.4922 26.9832 68.9602 24.9192 69.3922L24.6792 68.5522C24.9672 68.4922 25.2552 68.4322 25.5432 68.3842V60.1162H29.5512ZM26.3952 68.2042C27.2112 68.0242 27.9792 67.8442 28.7112 67.6522V65.9962H26.3952V68.2042ZM26.3952 65.2162H28.7112V63.4042H26.3952V65.2162ZM26.3952 62.6122H28.7112V60.9082H26.3952V62.6122ZM31.7352 59.4562H32.5992V61.8562H35.2512C35.2512 65.6002 35.1912 67.9042 35.0712 68.7922C34.9512 69.7762 34.3512 70.2802 33.2712 70.2802C33.0792 70.2802 32.7432 70.2682 32.2632 70.2442L32.0592 69.4762C32.4792 69.5002 32.8392 69.5242 33.1512 69.5242C33.7872 69.5242 34.1592 69.1642 34.2552 68.4682C34.3272 67.8442 34.3752 65.9122 34.3992 62.6962H32.5992V62.8642C32.5632 66.3202 31.7112 68.8522 30.0432 70.4482L29.3952 69.8842C30.9312 68.4322 31.7112 66.0922 31.7352 62.8642V62.6962H30.2472V61.8562H31.7352V59.4562ZM46.2312 59.5042L46.6512 60.2362C45.5592 60.5242 44.2992 60.7522 42.8592 60.8962V62.9242H46.6872V63.7642H42.8592V65.7322H47.5872V66.5602H42.8592V69.2122C42.8592 69.9322 42.4752 70.3042 41.7312 70.3042H39.8712L39.6792 69.4642C40.2912 69.4882 40.8792 69.5122 41.4312 69.5122C41.7912 69.5122 41.9832 69.3322 41.9832 68.9962V66.5602H36.8232V65.7322H41.9832V63.7642H37.8192V62.9242H41.9832V60.9682C40.7112 61.0642 39.3312 61.1242 37.8432 61.1242L37.5792 60.3442C41.0592 60.3442 43.9392 60.0562 46.2312 59.5042Z" fill="black"/><rect x="0.0992187" y="0.100195" width="48.2" height="48.2" rx="10.1" fill="#F6F6F6"/><rect x="0.0992187" y="0.100195" width="48.2" height="48.2" rx="10.1" stroke="#D4D4D8" stroke-width="0.2"/><g filter="url(#filter0_iii_2483_15959)"><path d="M15.6479 11.2002H31.7505C33.1017 11.2002 34.1992 12.357 34.1992 13.781V34.565C34.1992 35.989 33.1017 37.1458 31.7505 37.1458H15.6479C14.2968 37.1458 13.1992 35.989 13.1992 34.565V13.781C13.1992 12.357 14.2968 11.2002 15.6479 11.2002Z" fill="#D9D9D9"/></g><g filter="url(#filter1_dii_2483_15959)"><path d="M33.6602 14.9668C34.8326 14.967 35.7852 15.9557 35.7852 17.1729V34.9395C35.7852 36.1566 34.8326 37.1453 33.6602 37.1455H19.6836C18.511 37.1454 17.5586 36.1567 17.5586 34.9395V17.1729C17.5586 15.9556 18.511 14.9669 19.6836 14.9668H33.6602ZM22.3574 25.4287C21.8952 25.4287 21.5205 25.8034 21.5205 26.2656C21.5205 26.7278 21.8952 27.1025 22.3574 27.1025H26.627C27.0892 27.1025 27.4639 26.7278 27.4639 26.2656C27.4639 25.8034 27.0892 25.4287 26.627 25.4287H22.3574ZM21.5205 22.918C21.5205 23.3802 21.8952 23.7549 22.3574 23.7549H28.6084C29.0706 23.7549 29.4453 23.3802 29.4453 22.918C29.4453 22.4558 29.0706 22.0811 28.6084 22.0811H22.3574C21.8952 22.0811 21.5205 22.4558 21.5205 22.918ZM21.5205 19.5693C21.5205 20.0316 21.8952 20.4062 22.3574 20.4062H29.7969C30.2591 20.4062 30.6338 20.0316 30.6338 19.5693C30.6338 19.1071 30.2591 18.7324 29.7969 18.7324H22.3574C21.8952 18.7324 21.5205 19.1071 21.5205 19.5693Z" fill="#919191"/></g><defs><filter id="filter0_iii_2483_15959" x="12.7305" y="10.7314" width="21.9375" height="26.8833" filterUnits="userSpaceOnUse" color-interpolation-filters="sRGB"><feFlood flood-opacity="0" result="BackgroundImageFix"/><feBlend mode="normal" in="SourceGraphic" in2="BackgroundImageFix" result="shape"/><feColorMatrix in="SourceAlpha" type="matrix" values="0 0 0 0 0 0 0 0 0 0 0 0 0 0 0 0 0 0 127 0" result="hardAlpha"/><feOffset dx="0.46875" dy="0.46875"/><feGaussianBlur stdDeviation="0.703125"/><feComposite in2="hardAlpha" operator="arithmetic" k2="-1" k3="1"/><feColorMatrix type="matrix" values="0 0 0 0 0.121569 0 0 0 0 0.121569 0 0 0 0 0.117647 0 0 0 0.05 0"/><feBlend mode="normal" in2="shape" result="effect1_innerShadow_2483_15959"/><feColorMatrix in="SourceAlpha" type="matrix" values="0 0 0 0 0 0 0 0 0 0 0 0 0 0 0 0 0 0 127 0" result="hardAlpha"/><feOffset dx="-0.46875" dy="-0.46875"/><feGaussianBlur stdDeviation="0.703125"/><feComposite in2="hardAlpha" operator="arithmetic" k2="-1" k3="1"/><feColorMatrix type="matrix" values="0 0 0 0 0.121569 0 0 0 0 0.121569 0 0 0 0 0.117647 0 0 0 0.05 0"/><feBlend mode="normal" in2="effect1_innerShadow_2483_15959" result="effect2_innerShadow_2483_15959"/><feColorMatrix in="SourceAlpha" type="matrix" values="0 0 0 0 0 0 0 0 0 0 0 0 0 0 0 0 0 0 127 0" result="hardAlpha"/><feOffset dx="0.46875" dy="0.46875"/><feGaussianBlur stdDeviation="0.9375"/><feComposite in2="hardAlpha" operator="arithmetic" k2="-1" k3="1"/><feColorMatrix type="matrix" values="0 0 0 0 0.121569 0 0 0 0 0.121569 0 0 0 0 0.117647 0 0 0 0.05 0"/><feBlend mode="normal" in2="effect2_innerShadow_2483_15959" result="effect3_innerShadow_2483_15959"/></filter><filter id="filter1_dii_2483_15959" x="17.0898" y="14.498" width="20.6328" height="25.0537" filterUnits="userSpaceOnUse" color-interpolation-filters="sRGB"><feFlood flood-opacity="0" result="BackgroundImageFix"/><feColorMatrix in="SourceAlpha" type="matrix" values="0 0 0 0 0 0 0 0 0 0 0 0 0 0 0 0 0 0 127 0" result="hardAlpha"/><feOffset dx="0.9375" dy="1.40625"/><feGaussianBlur stdDeviation="0.5"/><feComposite in2="hardAlpha" operator="out"/><feColorMatrix type="matrix" values="0 0 0 0 0.394602 0 0 0 0 0.394602 0 0 0 0 0.394602 0 0 0 0.08 0"/><feBlend mode="normal" in2="BackgroundImageFix" result="effect1_dropShadow_2483_15959"/><feBlend mode="normal" in="SourceGraphic" in2="effect1_dropShadow_2483_15959" result="shape"/><feColorMatrix in="SourceAlpha" type="matrix" values="0 0 0 0 0 0 0 0 0 0 0 0 0 0 0 0 0 0 127 0" result="hardAlpha"/><feOffset dx="0.5" dy="0.5"/><feGaussianBlur stdDeviation="0.5"/><feComposite in2="hardAlpha" operator="arithmetic" k2="-1" k3="1"/><feColorMatrix type="matrix" values="0 0 0 0 0.109684 0 0 0 0 0.0922738 0 0 0 0 0.0922738 0 0 0 0.1 0"/><feBlend mode="normal" in2="shape" result="effect2_innerShadow_2483_15959"/><feColorMatrix in="SourceAlpha" type="matrix" values="0 0 0 0 0 0 0 0 0 0 0 0 0 0 0 0 0 0 127 0" result="hardAlpha"/><feOffset dx="-0.46875" dy="-0.46875"/><feGaussianBlur stdDeviation="0.5"/><feComposite in2="hardAlpha" operator="arithmetic" k2="-1" k3="1"/><feColorMatrix type="matrix" values="0 0 0 0 0 0 0 0 0 0 0 0 0 0 0 0 0 0 0.05 0"/><feBlend mode="normal" in2="effect2_innerShadow_2483_15959" result="effect3_innerShadow_2483_15959"/></filter></defs></svg>

<svg fill="none" viewBox="0 0 49 74"><path fill="#DADADA" d="M0 0h49v74H0z"/><path fill="white" d="M1043.2 91.2H-396.801v-109H1043.2z"/><path fill="black" d="M4.843 64.22v.852c-.456.228-.912.444-1.38.636v3.576q0 1.08-1.044 1.08H1.303l-.192-.828c.348.036.684.06 1.008.06s.492-.18.492-.516v-3.024c-.552.204-1.128.396-1.704.576l-.216-.852c.66-.156 1.296-.348 1.92-.564v-2.784H.871v-.828h1.74v-2.172h.852v2.172h1.344v.828H3.463v2.448c.468-.204.924-.42 1.38-.66m1.476.756V70.4h-.816V59.888h5.268c0 1.332-.072 2.22-.204 2.664-.144.432-.6.66-1.368.66h-.864l-.24-.756c.192 0 .42.012.708.012s.516-.024.66-.048a.6.6 0 0 0 .324-.276c.084-.228.132-.72.156-1.464H6.32v3.504h4.56v.744c-.24 1.272-.66 2.364-1.284 3.264.576.552 1.284 1.056 2.124 1.524l-.576.66c-.792-.504-1.476-1.02-2.028-1.572a6.8 6.8 0 0 1-2.1 1.608l-.42-.756A6.3 6.3 0 0 0 8.54 68.18c-.828-.984-1.332-2.052-1.524-3.204zm1.476 0a5.5 5.5 0 0 0 1.212 2.58c.48-.732.828-1.596 1.044-2.58zm14.352.996v4.416h-.876v-.636H15.2v.636h-.876v-4.416zM15.2 68.936h6.072V66.8H15.2zm-.156-7.02a8.7 8.7 0 0 1-1.452 1.536l-.516-.684c1.08-.864 1.824-1.932 2.208-3.192l.864.096a8 8 0 0 1-.588 1.416h2.352v-1.704h.876v1.704h3.924v.828h-3.924v1.944h4.836v.852H12.775v-.852h5.136v-1.944zm14.508-1.8v7.308c.276-.084.54-.168.804-.252v.816q-2.34.756-5.436 1.404l-.24-.84c.288-.06.576-.12.864-.168v-8.268zm-3.156 8.088a61 61 0 0 0 2.316-.552v-1.656h-2.316zm0-2.988h2.316v-1.812h-2.316zm0-2.604h2.316v-1.704h-2.316zm5.34-3.156h.864v2.4h2.652c0 3.744-.06 6.048-.18 6.936-.12.984-.72 1.488-1.8 1.488q-.288 0-1.008-.036l-.204-.768c.42.024.78.048 1.092.048.636 0 1.008-.36 1.104-1.056.072-.624.12-2.556.144-5.772h-1.8v.168c-.036 3.456-.888 5.988-2.556 7.584l-.648-.564q2.304-2.178 2.34-7.02v-.168h-1.488v-.84h1.488zm14.496.048.42.732a24.5 24.5 0 0 1-3.792.66v2.028h3.828v.84H42.86v1.968h4.728v.828H42.86v2.652c0 .72-.384 1.092-1.128 1.092h-1.86l-.192-.84c.612.024 1.2.048 1.752.048.36 0 .552-.18.552-.516V66.56h-5.16v-.828h5.16v-1.968H37.82v-.84h4.164v-1.956a55 55 0 0 1-4.14.156l-.264-.78c3.48 0 6.36-.288 8.652-.84"/><rect width="48.2" height="48.2" x=".099" y=".1" fill="#F6F6F6" rx="10.1"/><rect width="48.2" height="48.2" x=".099" y=".1" stroke="#D4D4D8" stroke-width=".2" rx="10.1"/><g filter="url(#a)"><path fill="#D9D9D9" d="M15.648 11.2H31.75c1.35 0 2.448 1.157 2.448 2.581v20.784c0 1.424-1.097 2.58-2.448 2.58H15.647c-1.351 0-2.449-1.156-2.449-2.58V13.781c0-1.424 1.098-2.58 2.449-2.58"/></g><g filter="url(#b)"><path fill="#919191" d="M33.66 14.967c1.173 0 2.125.989 2.125 2.206V34.94c0 1.217-.952 2.205-2.125 2.206H19.684c-1.173 0-2.125-.99-2.125-2.206V17.173c0-1.217.952-2.206 2.125-2.206zM22.357 25.429a.837.837 0 0 0 0 1.674h4.27a.837.837 0 0 0 0-1.674zm-.837-2.511c0 .462.375.837.837.837h6.251a.837.837 0 0 0 0-1.674h-6.25a.837.837 0 0 0-.838.837m0-3.349c0 .463.375.837.837.837h7.44a.837.837 0 1 0 0-1.674h-7.44a.837.837 0 0 0-.837.837"/></g><defs><filter id="a" width="21.938" height="26.883" x="12.73" y="10.731" color-interpolation-filters="sRGB" filterUnits="userSpaceOnUse"><feFlood flood-opacity="0" result="BackgroundImageFix"/><feBlend in="SourceGraphic" in2="BackgroundImageFix" mode="normal" result="shape"/><feColorMatrix in="SourceAlpha" result="hardAlpha" type="matrix" values="0 0 0 0 0 0 0 0 0 0 0 0 0 0 0 0 0 0 127 0"/><feOffset dx=".469" dy=".469"/><feGaussianBlur stdDeviation=".703"/><feComposite in2="hardAlpha" k2="-1" k3="1" operator="arithmetic"/><feColorMatrix type="matrix" values="0 0 0 0 0.121569 0 0 0 0 0.121569 0 0 0 0 0.117647 0 0 0 0.05 0"/><feBlend in2="shape" mode="normal" result="effect1_innerShadow_2483_15959"/><feColorMatrix in="SourceAlpha" result="hardAlpha" type="matrix" values="0 0 0 0 0 0 0 0 0 0 0 0 0 0 0 0 0 0 127 0"/><feOffset dx="-.469" dy="-.469"/><feGaussianBlur stdDeviation=".703"/><feComposite in2="hardAlpha" k2="-1" k3="1" operator="arithmetic"/><feColorMatrix type="matrix" values="0 0 0 0 0.121569 0 0 0 0 0.121569 0 0 0 0 0.117647 0 0 0 0.05 0"/><feBlend in2="effect1_innerShadow_2483_15959" mode="normal" result="effect2_innerShadow_2483_15959"/><feColorMatrix in="SourceAlpha" result="hardAlpha" type="matrix" values="0 0 0 0 0 0 0 0 0 0 0 0 0 0 0 0 0 0 127 0"/><feOffset dx=".469" dy=".469"/><feGaussianBlur stdDeviation=".938"/><feComposite in2="hardAlpha" k2="-1" k3="1" operator="arithmetic"/><feColorMatrix type="matrix" values="0 0 0 0 0.121569 0 0 0 0 0.121569 0 0 0 0 0.117647 0 0 0 0.05 0"/><feBlend in2="effect2_innerShadow_2483_15959" mode="normal" result="effect3_innerShadow_2483_15959"/></filter><filter id="b" width="20.633" height="25.054" x="17.09" y="14.498" color-interpolation-filters="sRGB" filterUnits="userSpaceOnUse"><feFlood flood-opacity="0" result="BackgroundImageFix"/><feColorMatrix in="SourceAlpha" result="hardAlpha" type="matrix" values="0 0 0 0 0 0 0 0 0 0 0 0 0 0 0 0 0 0 127 0"/><feOffset dx=".938" dy="1.406"/><feGaussianBlur stdDeviation=".5"/><feComposite in2="hardAlpha" operator="out"/><feColorMatrix type="matrix" values="0 0 0 0 0.394602 0 0 0 0 0.394602 0 0 0 0 0.394602 0 0 0 0.08 0"/><feBlend in2="BackgroundImageFix" mode="normal" result="effect1_dropShadow_2483_15959"/><feBlend in="SourceGraphic" in2="effect1_dropShadow_2483_15959" mode="normal" result="shape"/><feColorMatrix in="SourceAlpha" result="hardAlpha" type="matrix" values="0 0 0 0 0 0 0 0 0 0 0 0 0 0 0 0 0 0 127 0"/><feOffset dx=".5" dy=".5"/><feGaussianBlur stdDeviation=".5"/><feComposite in2="hardAlpha" k2="-1" k3="1" operator="arithmetic"/><feColorMatrix type="matrix" values="0 0 0 0 0.109684 0 0 0 0 0.0922738 0 0 0 0 0.0922738 0 0 0 0.1 0"/><feBlend in2="shape" mode="normal" result="effect2_innerShadow_2483_15959"/><feColorMatrix in="SourceAlpha" result="hardAlpha" type="matrix" values="0 0 0 0 0 0 0 0 0 0 0 0 0 0 0 0 0 0 127 0"/><feOffset dx="-.469" dy="-.469"/><feGaussianBlur stdDeviation=".5"/><feComposite in2="hardAlpha" k2="-1" k3="1" operator="arithmetic"/><feColorMatrix type="matrix" values="0 0 0 0 0 0 0 0 0 0 0 0 0 0 0 0 0 0 0.05 0"/><feBlend in2="effect2_innerShadow_2483_15959" mode="normal" result="effect3_innerShadow_2483_15959"/></filter></defs></svg>
